X:139
T:Ton THO4.139, The
M:2/4
L:1/8
Z:vmp. Peter Dunk 2010/11.from a transcription by Fynn Titford-Mock 2007
B:Thompson's Compleat Collection of 200 Favourite Country Dances Volume IV.
Q:1/4=160
K:A
A2 cA|AGFE|A2 cA|e4|d2 dB|c2 Ac|B2 cA|AGFE|A2cA|AGFE|A2cA|e4|
B2 cA|B2 cA|G2TF2|E4::e2 ce| d2 Bd| c2 Ac|B2E2|Acea|a2 ga|
bagf|e4|e2 ec|d2 Bd|c2 Ac|B2E2|[cC]EAc|FdcB|cABG| A4:|
